X:1
T:Scarce o'Tatties
R:Jig
M:6/8
%%printtempo 0
Q:180
K:Ador
"Am"A>ee e>fg|"G"e>dB d>BG|"Am"A>ee e>fg|"G"e>dB "Am"A3|
"Am"a>aa "C"g>ag|"D"f>gf e>AA|"Am"A>ee e>fg|"G"e>dB "Am"A3:|
|:a>eg a3|"G"g2f "Am"e>AA|a>eg a2e|"Em"g>af "Am"e3|
"Am"e>ee "C"A>AA|"D"d>ff f>ee|"Am"A>ee e>fg|"G"e>dB "Am"A3:|
